X:43
T:Hanter Dro IV
R:Breton
S:from Anna Pack/Frances Watt
G:sax
G:A instrument - whistle
P:soprano: 3x (end: ral., finish on ef2)
M:6/4
K:D
|: b2ag f2b2 b2a2 | b2ag f2b2 b2a2 | b2ag f2b2 b4 :|
|: e2fg a2f2 b4 | abag f2g2 e2d2 | e2fg a2f2 b4 | abag f2g2 e4 :| 

